Adwaita++-Dark/actions/22/resource-calendar-child-insert.svg

<svg height="22" viewBox="0 0 22 22" width="22" xmlns="http://www.w3.org/2000/svg">
  <path d="m3 1c-2.25 0-2 2-2 2v4h2v-4h10v4h2v-4c0-2-2-2-2-2zm1 3v2h2v-2zm3 0v2h2v-2zm3 0v2h2v-2zm-7 5v2h-2v2h2v2h2v-2h2v-2h-2v-2zm6 0c-.554 0-1 .5346187-1 1.199219v3.601562c0 .665.446 1.199219 1 1.199219h5c.554 0 1-.534219 1-1.199219v-3.601562c0-.6646003-.446-1.199219-1-1.199219z" fill="#e6ddff" transform="translate(3 3)"/>
</svg>

<svg xmlns="http://www.w3.org/2000/svg" width="22" height="22" viewBox="0 0 22 22">
 <defs>
  <style id="current-color-scheme" type="text/css">
   .ColorScheme-Text { color:#E6DDFF; } .ColorScheme-Highlight { color:#4285f4; }
  </style>
 </defs>
 <path style="fill:currentColor" class="ColorScheme-Text" d="M 3 1 C 0.75 1 1 3 1 3 L 1 7 L 3 7 L 3 3 L 13 3 L 13 7 L 15 7 L 15 3 C 15 1 13 1 13 1 L 3 1 z M 4 4 L 4 6 L 6 6 L 6 4 L 4 4 z M 7 4 L 7 6 L 9 6 L 9 4 L 7 4 z M 10 4 L 10 6 L 12 6 L 12 4 L 10 4 z M 3 9 L 3 11 L 1 11 L 1 13 L 3 13 L 3 15 L 5 15 L 5 13 L 7 13 L 7 11 L 5 11 L 5 9 L 3 9 z M 9 9 C 8.446 9 8 9.5346187 8 10.199219 L 8 13.800781 C 8 14.465781 8.446 15 9 15 L 14 15 C 14.554 15 15 14.465781 15 13.800781 L 15 10.199219 C 15 9.5346187 14.554 9 14 9 L 9 9 z" transform="translate(3 3)"/>
</svg>
